!!!OTL@@FUR: Su la plui alte cime  
!!!OTL@IT: Sulla vetta pi&ugrave; alta
!!!OTL@EN: On the highest crest
**kern
*clefG2
*k[b-]
*F:
*M6/8
*MM70
*>[A]
*>A
8a
=1
4cc
8cc
8dd
8cc
8b-
=2
4.a
4a
8cc
=3
8cc
8cc
8cc
8cc
8b-
8a
=4
4.g
8g
8r
8a
=5
4b-
8a
8cc
8b-
8a
=6
4.g
4g
8cc
=7
8cc
8b-
8cc
8dd
8cc
8b-
=8
4.a
8a
8r
8a
=9
4cc
8cc
8dd
8cc
8b-
=10
4.a
4a
8cc
=11
8cc
8cc
8cc
8cc
8b-
8a
=11
4.g
8g
8r
8a
=12
4b-
8a
8cc
8b-
8a
=13
4.g
4g
8cc
=14
8cc
8b-
8cc
8dd
8cc
8b-
=15
[4.a
8a]
8r
8cc
=16
4ff
8ff
8ff
8ee
8dd
=17
4.cc
8cc
8r
8a
=18
4b-
8b-
8dd
8cc
8b-
=19
[4.a
8a]
8r
8cc
=20
4ff
8ff
8ff
8ee
8dd
=21
4.cc
4cc
8cc
=24
4dd
8dd
4ee
8ee
=23
[4.ff
8ff]
8r
8r
==
*-
!!!ARE: Friui
!!!ENC: Kelly Leistikow
!!!END: 2002/22/02
!!!ref: @{OTL@@FUR}/@{OTL@EN}
